X: 1
T: Arirang
O: trad Korea
R: waltz
M: 3/4
L: 1/8
K: G
[| D3 E DE | G3 A GA | B2 (3ABA GE | D3 E DE |
G3 A GA | BA GE DE | G3 A G2 | G6 ||
|| d4 d2 | d2 B2 A2 | B2 (3ABA GE | D3 E DE |
G3 A GA | BA GE DE | G3 A G2 | G6 |]